!!!!SEGMENT: pl-sa--79-a-ii-19--001-012_siwinski-andrzej--missa-pro-defunctis-pie-iesu-domine.krn
!!!cenid: 17xx:304
!!!COM: Siwiński, Andrzej
!!!COM-rismID: pe41011487
!!!CDT: <1725->1725
!!!CNT:
!!!OPR: Missa pro defunctis
!!!OTL: Pie Iesu Domine
!!!OMV: 012
!!!PDT: 1726
!!!AGN: Sacred; Mass
!!!YEC: Copyright 2022 Narodowy Instytut Fryderyka Chopina (https://polishscores.org)
!!!YEM: License CC-BY-4.0 (https://creativecommons.org/licenses/by/4.0)
!!!SMS-siglum: PL-SA
!!!SMS-shelfmark: 79/A II 19
!!!SMS-shelfwork: 001-012 M
!!!NIFC-rismSourceID: 1001070177
!!!NIFC-rismChildID: 1001070177
!!!NIFC-islandoraID: none
!!!URL-pdf-islandora:
!!!URL-scan: https://bc.bdsandomierz.pl/dlibra/publication/1356/edition/1324/content @EN{Scan in the Sandomierz Diocese Digital Library} @PL{Skany w portalu Cyfrowa Biblioteka Diecezjalna w Sandomierzu}
!!!IIIF:
!!!ONB-nifc: Uwaga: części Mszy: Requiem, Kyrie, Dies Irae, Quantus tremor, Tuba mirrum, Mors, Quid sum miser, Rex tremende, Quaerens me, Iuste iudex, Oro supplex, Pie Iesu Domine, Domine Iesu Christe, Quam olim Abrahae, Hostias, Sanctus, Osanna, Benedictus, Agnus Dei
!!!AIN: 1 alto 1 bass 2 oboe 1 organ 1 soprn 1 tenor 2 violn
!!!key: c
**kern	**fba	**kern	**kern	**kern	**text	**kern	**text	**kern	**text	**kern	**text	**kern	**kern
*part9	*part9	*part8	*part7	*part6	*part6	*part5	*part5	*part4	*part4	*part3	*part3	*part2	*part1
*staff9	*	*staff8	*staff7	*staff6	*staff6	*staff5	*staff5	*staff4	*staff4	*staff3	*staff3	*staff2	*staff1
*I"Baſso pro Organo	*	*I"Violino. 2do	*I"Violino 1mo	*I"Baſso vocali	*	*I"Tenore	*	*I"Alto.	*	*I"Canto.	*	*I"Hobois 2do.	*I"Hautbo. 1mo.
*mI"Basso e Organo	*	*mI"Violino II	*mI"Violino I	*mI"Basso	*	*	*	*mI"Alto	*	*mI"Soprano	*	*mI"Oboe II	*mI"Oboe I
*I'org	*	*I'vl 2	*I'vl 1	*I'B	*	*I'T	*	*I'A	*	*I'S	*	*I'ob 2	*I'ob 1
*Iorgan	*	*Ivioln	*Ivioln	*Ibass	*	*Itenor	*	*Ialto	*	*Isoprn	*	*Ioboe	*Ioboe
*ICklav	*	*ICstr	*ICstr	*ICvox	*	*ICvox	*	*ICvox	*	*ICvox	*	*ICww	*ICww
*IGcont	*	*	*	*IGcoro	*	*IGcoro	*	*IGcoro	*	*IGcoro	*	*	*
*clefF4	*	*clefG2	*clefG2	*clefF4	*	*clefC4	*	*clefC3	*	*clefC1	*	*clefG2	*clefG2
*	*	*	*	*	*	*mclefGv2	*	*mclefG2	*	*mclefG2	*	*	*
*k[b-e-]	*	*k[e-b-]	*k[b-e-]	*k[b-e-]	*	*k[b-e-]	*	*k[b-e-]	*	*k[b-e-]	*	*k[e-b-]	*k[b-e-]
*mk[b-e-a-]	*	*mk[b-e-a-]	*mk[b-e-a-]	*mk[b-e-a-]	*	*mk[b-e-a-]	*	*mk[b-e-a-]	*	*mk[b-e-a-]	*	*mk[b-e-a-]	*mk[b-e-a-]
*c:	*	*c:	*c:	*c:	*	*c:	*	*c:	*	*c:	*	*c:	*c:
*M6/8	*	*M6/8	*M6/8	*M6/8	*	*M6/8	*	*M6/8	*	*M6/8	*	*M6/8	*M6/8
=1	=1	=1	=1	=1	=1	=1	=1	=1	=1	=1	=1	=1	=1
!LO:TX:b:i:mod= :t=Tutti	!	!LO:TX:t=P:problem=mixed beam	!	!LO:SIC:s=(8.CL	!	!	!	!	!	!LO:TX:t=P:problem=przy kluczu b- ee-	!	!	!
8.C/L	.	8e-/L	8cc\L	8.C/L	Pi-	(8.e-\L	Pi-	4g\	Pi-	4ee-\	Pi-	4e-/	8cc\L
.	.	8ee-\	8.gg\	.	.	.	.	.	.	.	.	.	8ee-\
!	!	!	!	!LO:SIC:s=16DJk)	!	!	!	!	!	!	!	!	!
16D/L	.	.	.	16D/Jk	.	16d\Jk)	.	.	.	.	.	.	.
16E-/	.	8cc\J	.	(16E-\LL	-e	8c\	-e	8g\	-e	8ee-\	-e	16g/LL	8cc\J
!	!	!	!LO:TX:t=P:problem=♭ above	!	!	!	!	!	!	!	!	!	!
16F/JJ	.	.	16aa-\Jk	16F\JJ)	.	.	.	.	.	.	.	16a-X/JJ	.
4.G\	.	8dd\L	8.dd\L	4G\	Je-	4Bn\	Je-	4g\	Je-	4dd\	Je-	8bn\L	8dd\L
!	!	!LO:TX:t=P:problem=♮ above	!	!	!	!	!	!	!	!	!	!	!LO:TX:t=P:problem=♮ above
.	.	8bn\	.	.	.	.	.	.	.	.	.	8dd\	8bn\
.	.	.	16dd\K	.	.	.	.	.	.	.	.	.	.
.	.	8dd\J	8dd\J	8G\	-su	8B\	-su	8d\	-su	8dd\	-su	8b\J	8dd\J
!	!	!	!	!	!	!	!	!LO:LB:g=original	!	!	!	!	!
=2	=2	=2	=2	=2	=2	=2	=2	=2	=2	=2	=2	=2	=2
!	!	!	!	!LO:SIC:s=(8cL	!	!	!	!	!	!	!	!	!
8c\L	.	8cc\	8ee-\	8c\L	Do-	4c\	Do-	(8e-\L	Do-	(8ee-\L	Do-	8cc\	8ee-\
!	!	!	!	!LO:SIC:s=8.B-J)	!	!	!	!	!	!	!	!	!
8B-\	6	4cc\	4ff\	8.B-\J	.	.	.	8.f\J)	.	8.dd\J)	.	4cc\	4ff\
8A-X\J	7	.	.	.	.	8c\	-mi-	.	.	.	.	.	.
.	6	.	.	16A-X\	-mi-	.	.	16f\	-mi-	16cc\	-mi-	.	.
4G\	.	8bn\L	8gg\L	4G\	-ne	4d\	-ne	4g\	-ne	4bn\	-ne	8bn\L	8gg\L
.	.	8dd\	16gg\L	.	.	.	.	.	.	.	.	8dd\	16gg\L
!	!	!	!LO:TX:t=P:problem=♭ above	!	!	!	!	!	!	!	!	!	!LO:TX:t=P:problem=♭ above
.	.	.	16aa-\	.	.	.	.	.	.	.	.	.	16aa-X\
8r	.	8dd\J	16gg\	8r	.	8r	.	8r	.	8r	.	8dd\J	16gg\
.	.	.	16ff\JJ	.	.	.	.	.	.	.	.	.	16ff\JJ
!LO:LB:g=original	!	!	!	!	!	!	!	!	!	!	!	!	!
=3	=3	=3	=3	=3	=3	=3	=3	=3	=3	=3	=3	=3	=3
!	!	!	!	!LO:SIC:s=(8cL	!LO:SIC:s=do-	!	!	!	!	!	!	!LO:SIC:s=4.ccM	!
8c\L	.	4.cc\	4ee-\	8c\L	Do-	4c\	do-	4g\	do-	4ee-\	do-	4.cc\	4.ee-M\
!	!	!	!	!LO:SIC:s=8GJ)	!	!	!	!	!	!	!	!	!
8G\	6	.	.	8G\J	.	.	.	.	.	.	.	.	.
!	!	!	!LO:TX:t=P:problem=♭ above	!	!	!	!	!	!	!	!	!	!
8A-X\J	5	.	8aa-\	8A-X\	-na	8c\	-na	8a-X\	-na	8ee-\	-na	.	.
!	!	!	!	!	!	!	!	!	!	!	!	!LO:SIC:s=4.b-M	!
!	!	!LO:SIC:v:s=4.b-X	!	!LO:SIC:s=(8B-L	!	!	!	!	!	!	!	!LO:TX:t=P:problem=♭ above	!
8B-\L	.	4.bn\	4dd\	8B-\L	e-	4B-\	e-	4f\	e-	4dd\	e-	4.b-X\	4.ddm\
!	!	!	!	!LO:SIC:s=8FJ)	!	!	!	!	!	!	!	!	!
8F\	6	.	.	(8F\J	.	.	.	.	.	.	.	.	.
!	!	!	!	!LO:SIC:s=8G	!	!	!	!	!	!	!	!	!
8G\J	5	.	8gg\	8G\)	-is	8B-\	-is	8g\	-is	8dd\	-is	.	.
=4	=4	=4	=4	=4	=4	=4	=4	=4	=4	=4	=4	=4	=4
!	!	!	!	!LO:SIC:s=(8A-L	!LO:SIC:s=re-	!	!LO:SIC:s=re-	!	!LO:SIC:s=re-	!	!LO:SIC:s=re-	!LO:SIC:s=4.a-M	!
8A-X\L	.	4.a-X/	4cc\	8A-X\L	Re-	(4.A-X\	Re-	(4e-\	Re-	4.ccM\	Re-	4.a-X/	4.ccM\
8E-\	6	.	.	8E-\	.	.	.	.	.	.	.	.	.
!	!	!	!	!	!	!	!	!LO:SIC:s=8f	!	!	!	!	!
8F\J	5	.	8ff\	8F\J	.	.	.	8f\)	.	.	.	.	.
!	!	!	!	!LO:SIC:s=4G)	!	!	!	!LO:SIC:s=4g)	!	!	!	!	!
4G\	4	8dd\	8gg\	4G\	.	4d\)	.	4g\	.	(16dd\LL	.	8bn/	(16dd\LL
!	!	!	!	!	!	!	!	!	!	!LO:SIC:s=16ee-J	!	!	!
.	.	.	.	.	.	.	.	.	.	16ee-\JJ)	.	.	16ee-\JJ)
!	!	!LO:SIC:v:s=4b	!	!	!	!	!	!	!	!LO:SIC:s=8.bJ)	!	!	!
.	.	4b-\	4gg\	.	.	.	.	.	.	8.bn\	.	4g/	4ddm\
!LO:TX:b:i:mod= :t=Solo	!	!	!	!	!	!	!	!	!	!	!	!	!
8GG/	3	.	.	8GG/	-qui-	8d\	-qui-	8g\	-qui-	.	.	.	.
.	.	.	.	.	.	.	.	.	.	16b\	-qui-	.	.
!	!	!	!	!	!	!	!	!	!	!	!	!	!LO:LB:g=original
=5	=5	=5	=5	=5	=5	=5	=5	=5	=5	=5	=5	=5	=5
!	!	!	!	!	!	!	!LO:SIC:s=-em	!	!	!	!	!	!
4.C/	.	4cc\	4gg\	4C/	-em	4c\	-e(m)	4g\	-em	8cc\	-em	4e-/	4cc\
.	.	.	.	.	.	.	.	.	.	8g/	Pi-	.	.
.	.	8r	8r	8r	.	8r	.	8r	.	8cc\	-e	8r	8r
!	!	!LO:N:vis=2	!LO:N:vis=2	!LO:N:vis=2	!	!LO:N:vis=2	!	!LO:N:vis=2	!	!LO:LB:g=original	!	!LO:N:vis=2	!LO:N:vis=2
8GG/L	6	4.r	4.r	4.r	.	4.r	.	4.r	.	(8bn\L	Je-	4.r	4.r
8AAn/	6	.	.	.	.	.	.	.	.	8cc\J)	.	.	.
8BBn/J	6	.	.	.	.	.	.	.	.	8dd\	-su	.	.
=6	=6	=6	=6	=6	=6	=6	=6	=6	=6	=6	=6	=6	=6
!	!	!	!LO:TX:a:mod= :t=7	!	!	!	!	!	!	!	!	!	!
!	!	!LO:N:vis=00	!LO:N:vis=00	!LO:N:vis=00	!	!LO:N:vis=00	!	!LO:N:vis=2	!	!	!	!LO:N:vis=00	!LO:N:vis=00
8C/L	6	0.r	0.r	0.r	.	0.r	.	4.r	.	(8ee-\L	Do-	0.r	0.r
8BBn/	.	.	.	.	.	.	.	.	.	8.dd\J)	.	.	.
!LO:SIC:s=8AA-X/J	!	!	!	!	!	!	!	!	!	!	!	!	!
8AA-X/J	7	.	.	.	.	.	.	.	.	.	.	.	.
.	6	.	.	.	.	.	.	.	.	16cc\	-mi-	.	.
4GG/	.	.	.	.	.	.	.	8r	.	4bn\	-ne	.	.
.	.	.	.	.	.	.	.	8g\	do-	.	.	.	.
8r	.	.	.	.	.	.	.	8g\	-na	8r	.	.	.
=7	=7	=7	=7	=7	=7	=7	=7	=7	=7	=7	=7	=7	=7
8r	.	.	.	.	.	.	.	4a-X\	e-	8r	.	.	.
8F\L	.	.	.	.	.	.	.	.	.	8ff\	do-	.	.
8D\J	.	.	.	.	.	.	.	8a-\	-is	8ff\	-na	.	.
4BB-/	5_	.	.	.	.	.	.	8r	.	4dd\	e-	.	.
.	.	.	.	.	.	.	.	8f\	do-	.	.	.	.
8BB-/	.	.	.	.	.	.	.	8f\	-na	8dd\	-is	.	.
=8	=8	=8	=8	=8	=8	=8	=8	=8	=8	=8	=8	=8	=8
8r	x	.	.	.	.	.	.	4g\	e-	8r	.	.	.
*	*	*	*	*	*	*	*	*	*	*	*ij	*	*
8E-\L	.	.	.	.	.	.	.	.	.	8ee-\	do-	.	.
8C\J	.	.	.	.	.	.	.	8g\	-is	8ee-\	-na	.	.
4AA-X/	5_	.	.	.	.	.	.	8r	.	4cc\	e-	.	.
.	.	.	.	.	.	.	.	8e-\	do-	.	.	.	.
8AA-/	.	.	.	.	.	.	.	8e-\	-na	8cc\	-is	.	.
*	*	*	*	*	*	*	*	*	*	*	*Xij	*	*
=9	=9	=9	=9	=9	=9	=9	=9	=9	=9	=9	=9	=9	=9
4BB-/	x	.	.	.	.	.	.	4f\	e-	4dd\	e-	.	.
8BBn/	6	.	.	.	.	.	.	8g\	-is	8dd\	-is	.	.
!LO:TX:t=P:problem=mixed beam	!	!	!	!	!	!	!	!	!LO:SIC:s=re-	!	!LO:SIC:s=re-	!	!
8C/L	.	.	.	.	.	.	.	(16f\LL	Re-	(16ee-\LL	Re-	.	.
!	!	!	!	!	!	!	!	!LO:SIC:s=16e-J	!	!LO:SIC:s=16ccJ	!	!	!
.	.	.	.	.	.	.	.	16e-\JJ)	.	16cc\JJ)	.	.	.
!	!	!	!	!	!	!	!	!LO:SIC:s=8.dJ)	!	!	!	!	!
!	!	!	!	!	!	!	!	!LO:LB:g=original	!	!LO:SIC:s=8.bJ)	!	!	!
8G\	.	.	.	.	.	.	.	8.d\	.	8.bn\	.	.	.
8GG/J	.	.	.	.	.	.	.	.	.	.	.	.	.
.	.	.	.	.	.	.	.	16c/	-qui-	16b\	-qui-	.	.
=10	=10	=10	=10	=10	=10	=10	=10	=10	=10	=10	=10	=10	=10
!	!	!LO:N:vis=0	!LO:N:vis=0	!LO:N:vis=0	!	!LO:N:vis=0	!	!	!	!	!	!	!
4C/	.	1.r	1.r	1.r	.	1.r	.	4c/	-em	4cc\	-em	8r	8r
.	.	.	.	.	.	.	.	.	.	.	.	8ee-\L	8gg\L
8r	.	.	.	.	.	.	.	8r	.	8r	.	8ee-\J	8gg\J
!	!	!	!	!	!	!	!	!LO:N:vis=2	!	!LO:N:vis=2	!	!	!
8r	.	.	.	.	.	.	.	4.r	.	4.r	.	4ff\	4aa-X\
8F\L	.	.	.	.	.	.	.	.	.	.	.	.	.
8D\J	.	.	.	.	.	.	.	.	.	.	.	8ff\	8aa-\
=11	=11	=11	=11	=11	=11	=11	=11	=11	=11	=11	=11	=11	=11
!	!	!	!	!	!	!	!	!LO:N:vis=0	!	!LO:N:vis=0	!	!	!
4BB-/	5_	.	.	.	.	.	.	1.r	.	1.r	.	8r	8r
.	.	.	.	.	.	.	.	.	.	.	.	8dd\L	8ff\L
8BB-/	.	.	.	.	.	.	.	.	.	.	.	8dd\J	8ff\J
!LO:LB:g=original	!	!	!	!	!	!	!	!	!	!	!	!	!
8r	x	.	.	.	.	.	.	.	.	.	.	4ee-\	4gg\
8E-\L	.	.	.	.	.	.	.	.	.	.	.	.	.
8C\J	.	.	.	.	.	.	.	.	.	.	.	8ee-\	8gg\
=12	=12	=12	=12	=12	=12	=12	=12	=12	=12	=12	=12	=12	=12
4AA-X/	5_	2.r	2.r	2.r	.	2.r	.	.	.	.	.	8r	8r
.	.	.	.	.	.	.	.	.	.	.	.	8cc\L	8ee-\L
8AA-/	.	.	.	.	.	.	.	.	.	.	.	8cc\J	8ee-\J
4BB-/	5	.	.	.	.	.	.	.	.	.	.	4dd\	4ff\
8BBn/	6	.	.	.	.	.	.	.	.	.	.	8dd\	8gg\
!	!	!	!LO:LB:g=original	!	!	!	!	!	!	!	!	!LO:LB:g=original	!
=13	=13	=13	=13	=13	=13	=13	=13	=13	=13	=13	=13	=13	=13
!LO:TX:t=P:problem=mixed beam	!	!LO:N:vis=2	!LO:N:vis=2	!LO:N:vis=2	!	!LO:N:vis=2	!	!LO:N:vis=2	!	!LO:N:vis=2	!	!	!
8C\L	.	4.r	4.r	4.r	.	4.r	.	4.r	.	4.r	.	8cc\	16ff\LL
.	.	.	.	.	.	.	.	.	.	.	.	.	16ee-\JJ
8G\	4	.	.	.	.	.	.	.	.	.	.	4g/	4dd\
8GG/J	3	.	.	.	.	.	.	.	.	.	.	.	.
*	*	*	*	*	*	*	*ij	*	*	*	*	*	*
!LO:TX:b:i:mod= :t=Tutti	!	!LO:TX:t=P:problem=mixed beam	!	!	!	!	!	!	!	!	!	!	!
8.C/L	.	8e-/L	8cc\L	(8.C/L	Pi-	(8.e-\L	Pi-	4g\	Pi-	4ee-\	Pi-	4e-/	8cc\L
.	.	8ee-\	8.gg\	.	.	.	.	.	.	.	.	.	8ee-\
16D/L	.	.	.	16D/Jk)	.	16d\Jk)	.	.	.	.	.	.	.
16E-/	.	8cc\J	.	(16E-\LL	-e	8c\	-e	8g\	-e	8ee-\	-e	16g/LL	8cc\J
!	!	!	!LO:TX:t=P:problem=♭ above	!	!	!	!	!	!	!	!	!	!
16F/JJ	.	.	16aa-\Jk	16F\JJ)	.	.	.	.	.	.	.	16a-X/JJ	.
=14	=14	=14	=14	=14	=14	=14	=14	=14	=14	=14	=14	=14	=14
4.G\	.	8dd\L	8.dd\L	4G\	Je-	4Bn\	Je-	4g\	Je-	4dd\	Je-	8bn\L	8dd\L
!	!	!LO:SIC:v:s=8b	!	!	!	!	!	!	!	!	!	!	!LO:TX:t=P:problem=♮ above
.	.	8b-\	.	.	.	.	.	.	.	.	.	8dd\	8bn\
.	.	.	16dd\K	.	.	.	.	.	.	.	.	.	.
.	.	8dd\J	8dd\J	8G\	-su	8B\	-su	8g\	-su	8dd\	-su	8b\J	8dd\J
!	!	!	!	!LO:SIC:s=(8cL	!	!	!	!	!	!	!	!	!
!	!	!	!	!LO:LB:g=original	!	!	!	!	!	!	!	!	!
8c\L	.	8cc\	8ee-\	8c\L	Do-	4c\	Do-	(8e-\L	Do-	(8ee-\L	Do-	8cc\	8ee-\
!	!	!	!	!LO:SIC:s=8.B-J)	!	!	!	!	!	!	!	!	!
8B-\	6	4cc\	4ff\	(8.B-\J	.	.	.	8.f\J)	.	8.dd\J)	.	4cc\	4ff\
8A-X\J	7	.	.	.	.	8c\	-mi-	.	.	.	.	.	.
!	!	!	!	!LO:SIC:s=16A-	!	!	!	!	!	!	!	!	!
.	6	.	.	16A-X\)	-mi-	.	.	16f\	-mi-	16cc\	-mi-	.	.
!	!	!	!	!	!	!	!	!	!	!LO:LB:g=original	!	!	!
=15	=15	=15	=15	=15	=15	=15	=15	=15	=15	=15	=15	=15	=15
!	!	!	!	!	!	!	!	!	!	!LO:TX:t=P:problem=♮ above	!	!	!
4G\	.	8bn\L	8gg\L	4G\	-ne	4d\	-ne	4g\	-ne	4bn\	-ne	8bn\L	8gg\L
.	.	8dd\	16gg\L	.	.	.	.	.	.	.	.	8dd\	16gg\L
!	!	!	!LO:TX:t=P:problem=♭ above	!	!	!	!	!	!	!	!	!	!
.	.	.	16aa-\	.	.	.	.	.	.	.	.	.	16aa-X\
8r	.	8dd\J	16gg\	8r	.	8r	.	8r	.	8r	.	8dd\J	16gg\
.	.	.	16ff\JJ	.	.	.	.	.	.	.	.	.	16ff\JJ
!	!	!LO:LB:g=original	!	!	!LO:SIC:s=do-	!LO:LB:g=original	!	!	!	!	!	!	!
8c\L	.	4.cc\	4ee-\	(8c\L	Do-	4c\	do-	4g\	do-	4ee-\	do-	4.ccM\	4.ee-M\
8G\	6	.	.	8G\J)	.	.	.	.	.	.	.	.	.
!	!	!	!LO:TX:t=P:problem=♭ above	!	!	!	!	!	!	!	!	!	!
8A-X\J	5	.	8aa-X\	8A-X\	-na	8c\	-na	8a-X\	-na	8ee-\	-na	.	.
=16	=16	=16	=16	=16	=16	=16	=16	=16	=16	=16	=16	=16	=16
!	!	!LO:SIC:s=4.b-X	!	!	!	!	!	!	!	!	!	!LO:SIC:s=4.b-M	!
8B-\L	.	4.b-X\	4dd\	(8B-\L	e-	4B-\	e-	4f\	e-	4dd\	e-	4.b-X/	4.ddm\
8F\	6	.	.	8F\J)	.	.	.	.	.	.	.	.	.
8G\J	5	.	8gg\	8G\	-is	8B-\	-is	8g\	-is	8dd\	-is	.	.
!	!	!	!	!	!LO:SIC:s=re-	!LO:SIC:s=(4.A-	!LO:SIC:s=re-	!	!LO:SIC:s=re-	!	!LO:SIC:s=re-	!LO:SIC:s=4.a-M	!
8A-X\L	.	4.a-X/	4cc\	(8A-X\L	Re-	4.A-X\	Re-	(4e-\	Re-	(4.cc\	Re-	4.a-X/	4.ccM\
8E-\	6	.	.	8E-\	.	.	.	.	.	.	.	.	.
!	!	!	!	!	!	!	!	!LO:SIC:s=8f	!	!	!	!	!
8F\J	5	.	8ff\	8F\J)	.	.	.	8f\)	.	.	.	.	.
=17	=17	=17	=17	=17	=17	=17	=17	=17	=17	=17	=17	=17	=17
!	!	!	!	!	!	!LO:SIC:s=4d)	!	!	!	!	!	!	!
!	!	!	!	!	!	!LO:N:vis=8	!	!LO:SIC:s=4g)	!	!LO:SIC:s=16ddLL	!	!	!
4G\	4	8dd\	8gg\	4G\	.	4d\	.	4g\	.	16dd\LL)	.	8bn/	(16dd\LL
!	!	!	!	!	!	!	!	!	!	!LO:SIC:s=16ee-J	!	!	!
.	.	.	.	.	.	.	.	.	.	16ee-\JJ	.	.	16ee-\JJ)
!	!	!LO:TX:t=P:problem=♮ above	!	!	!	!	!	!	!	!LO:SIC:s=8.bJ)	!	!	!
.	.	4bn\	4gg\	.	.	.	.	.	.	8.bn\	.	4g/	4ddm\
8GG/	3	.	.	8GG/	-qui-	8d\	-qui-	8g\	-qui-	.	.	.	.
.	.	.	.	.	.	.	.	.	.	16b\	-qui-	.	.
!	!	!	!	!	!	!	!LO:SIC:s=-em	!	!	!	!	!LO:TX:t=P:problem=mixed beam	!
8C/	.	8cc\L	8gg\L	4C/	-em	4c	-e(m)	4g\	-em	4cc\	-em	8e-/L	8cc\L
!	!	!	!	!	!	!	!	!	!	!	!	!LO:TX:t=P:problem=♮ above	!
4G\	.	8bn\	8gg\	.	.	.	.	.	.	.	.	8bn\	8gg\
!	!	!	!	!	!	!LO:TX:t=P:problem=brak pauzy 8r	!	!	!	!	!	!	!
.	.	8b\J	8dd\J	8r	.	8ryy	.	8r	.	8r	.	8b\J	8dd\J
*	*	*	*	*	*	*	*Xij	*	*	*	*	*	*
!	!	!	!	!	!	!	!	!	!	!	!	!	!LO:LB:g=original
=18	=18	=18	=18	=18	=18	=18	=18	=18	=18	=18	=18	=18	=18
!	!	!	!	!	!LO:SIC:s=do-	!	!	!	!	!	!	!LO:SIC:s=4.ccM	!
8c\L	.	4.cc\	4ee-\	(8c\L	Do-	4c\	do-	4g\	do-	4ee-\	do-	4.cc\	4.ee-M\
8G\	6	.	.	8G\J)	.	.	.	.	.	.	.	.	.
!	!	!	!LO:SIC:v:s=8aa-	!	!	!	!	!	!	!	!	!	!
8A-X\J	5	.	8aa\	8A-X\	-na	8c\	-na	8a-X\	-na	8ee-\	-na	.	.
!	!	!LO:SIC:s=4.b-X	!	!LO:SIC:s=(8B-L	!	!	!	!	!	!	!	!LO:SIC:s=4.b-M	!
8B-\L	.	4.b-X\	4dd\	8B-\L	e-	4B-\	e-	4f\	e-	4dd\	e-	4.b-X\	4.ddm\
!	!	!	!	!LO:SIC:s=8FJ)	!	!	!	!	!	!	!	!	!
8F\	6	.	.	8F\J	.	.	.	.	.	.	.	.	.
!LO:N:vis=8.	!	!	!	!	!	!	!	!	!	!	!	!	!
8G\J	5	.	8gg\	8G\	-is	8B-\	-is	8g\	-is	8dd\	-is	.	.
!LO:LB:g=original	!	!	!	!	!	!	!	!LO:LB:g=original	!	!	!	!	!
=19	=19	=19	=19	=19	=19	=19	=19	=19	=19	=19	=19	=19	=19
!	!	!	!	!LO:SIC:s=(8A-L	!LO:SIC:s=re-	!LO:SIC:s=(4.A-	!LO:SIC:s=re-	!	!LO:SIC:s=re-	!LO:SIC:s=(4.cc	!LO:SIC:s=re-	!LO:SIC:s=4.a-M	!
8A-X\L	.	4.a-X/	4cc\	8A-X\L	Re-	4.A-X\	Re-	(4e-\	Re-	4.cc\	Re-	4.a-X/	4.ccM\
!	!	!	!	!LO:SIC:s=8E-	!	!	!	!	!	!	!	!	!
8E-\	6	.	.	(8E-\	.	.	.	.	.	.	.	.	.
!	!	!	!	!LO:SIC:s=8FJ	!	!	!	!LO:SIC:s=8f	!	!	!	!	!
8F\J	5	.	8ff\	8F\J)	.	.	.	8f\)	.	.	.	.	.
!	!	!	!	!LO:SIC:s=4G)	!	!LO:SIC:s=4d)	!	!LO:SIC:s=4g)	!	!LO:SIC:s=16ddLL	!	!	!
4G\	4	8dd\	8gg\	4G\	.	4d\	.	4g\	.	(16dd\LL	.	8bn/	(16dd\LL
!	!	!	!	!	!	!	!	!	!	!LO:SIC:s=16ee-J	!	!	!
.	.	.	.	.	.	.	.	.	.	16ee-\JJ)	.	.	16ee-\JJ)
!	!	!LO:TX:t=P:problem=♮ above	!	!	!	!	!	!	!	!LO:SIC:s=8.bJ)	!	!LO:SIC:v:s=4g	!
.	.	4bn\	4gg\	.	.	.	.	.	.	8.bn\	.	4g/	4ddm\
8GG/	3	.	.	8GG/	-qui-	8d\	-qui-	8g\	-qui-	.	.	.	.
.	.	.	.	.	.	.	.	.	.	16b\	-qui-	.	.
!	!	!	!	!	!	!	!	!	!	!	!	!LO:LB:g=original	!
=20	=20	=20	=20	=20	=20	=20	=20	=20	=20	=20	=20	=20	=20
4C/	.	4cc\	4gg\	4C/	-em	4c\	-em	4g\	-em	4cc\	-em	4e/	4cc\
8r	.	8r	8r	8r	.	8r	.	8r	.	8r	.	8r	8r
!!LO:TX:a:t= :mod=Tarde
!LO:TX:a:i:mod= :t=tarde	!	!	!	!LO:TX:a:i:mod= :t=tarde	!	!	!	!	!	!LO:TX:a:i:mod= :t=tarde	!	!	!LO:TX:a:mod= :t=tarde
!LO:TX:b:i:mod= :t=Amen	!	!	!LO:TX:b:i:mod= :t=tarde	!	!	!	!	!LO:TX:b:i:mod= :t=tarde	!	!	!	!	!LO:TX:b:mod= :t=Amen.
4.F\	.	4.ff\	4.aa-\	4.F\	A-	4.f\	A-	4.a-X\	A-	4.cc\	A-	4a-X/	4cc\
.	.	.	.	.	.	.	.	.	.	.	.	8a-/	8cc\
=21	=21	=21	=21	=21	=21	=21	=21	=21	=21	=21	=21	=21	=21
!	!	!	!	!	!	!LO:SIC:v:s=2.e	!	!	!	!	!	!LO:SIC:s=2.g	!
!	!	!LO:TX:b:i:rj:mod= :t=tarde	!LO:TX:b:i:mod= :t=amen	!	!LO:SIC:s=-men.	!LO:TX:b:i:rj:mod= :t=tarde	!LO:SIC:s=-men.	!	!LO:SIC:s=-men.	!	!LO:SIC:s=-men.	!LO:N:vis=2	!
2.C/	.	2.een\	2.gg\	2.C/	-men	2.e-\	-men	2.g\	-men	2.cc\	-men	2.g;;/	2.cc\
!LO:MO:mod===	!	!	!	!	!	!	!	!	!	!	!	!	!
==;;	==	==	==	==	==	==	==	==	==	==	==	==	==
*-	*-	*-	*-	*-	*-	*-	*-	*-	*-	*-	*-	*-	*-
!!!system-decoration: [(ww)][vox][(str)]<klav>
!!!filter-modern: shed -k -e "s/([#-])[X]/$1/g; s/[n]/$1/g;" |shed -e "s/TX(.*):t=P:/tx$1:t=P:/LG; s/LO:N:/LO:n:$1/L" | sic -sq | modori -m | autostem -r | tie -s | humtr -p
!!!ENC: Berenika Jozajtis
!!!END: 2020-05-01
!!!EED: Leszek Kubiak
!!!EEV: 2020-12-02
!!!EED2: Andrzej Kubiczek
!!!EEV2: 2023-08-26
!!!ENC-modern: Andrzej Kubiczek
!!!END-modern: 2023-08-26
